X: 1
T: Reel with the Birl, The
Z: Hiroyuki Yamada
R: reel
M: 4/4
L: 1/8
D: Mary MacNamara "Traditional Music from East Clare"
Z: Contributed 20040423022853 by Hiroyuki Yamada slainte_mha@infoseek.jp
K: Edor
E2 BE dEBE | E2 BE AGFD | E2 BE dE B2 |1 d2 dB AGFD:|2 d2 dB A4 ||
B3 d e3 g | fd d2 d2 ef | g4 g3 e | fa ~a2 afed |
f3 b bafe | faab afed | B3 A BAFA | d3 B AGFD ||
